optimized/24/solid/star.svg

<svg xmlns="http://www.w3.org/2000/svg" viewBox="0 0 24 24">
  <path fill-rule="evenodd" d="M10.7881 3.2108C11.2364 2.13286 12.7635 2.13286 13.2118 3.2108L15.2938 8.21652L20.6979 8.64976C21.8616 8.74306 22.3335 10.1953 21.4469 10.9549L17.3295 14.4818L18.5874 19.7553C18.8583 20.8909 17.6229 21.7884 16.6266 21.1799L11.9999 18.354L7.37329 21.1799C6.37697 21.7884 5.14158 20.8909 5.41246 19.7553L6.67038 14.4818L2.55303 10.9549C1.66639 10.1953 2.13826 8.74306 3.302 8.64976L8.70609 8.21652L10.7881 3.2108Z" clip-rule="evenodd"/>
</svg>

<svg xmlns="http://www.w3.org/2000/svg" viewBox="0 0 24 24" fill="currentColor" aria-hidden="true">
  <path fill-rule="evenodd" d="M10.788 3.21c.448-1.077 1.976-1.077 2.424 0l2.082 5.007 5.404.433c1.164.093 1.636 1.545.749 2.305l-4.117 3.527 1.257 5.273c.271 1.136-.964 2.033-1.96 1.425L12 18.354 7.373 21.18c-.996.608-2.231-.29-1.96-1.425l1.257-5.273-4.117-3.527c-.887-.76-.415-2.212.749-2.305l5.404-.433 2.082-5.006z" clip-rule="evenodd"/>
</svg>
